X:1
T:Alrante, 98.98 D
T:Alrante, 98.98 D
T:Benjamin Carl Unseld, 1892
T:Public Domain Courtesy of the Cyber Hymnal™
C:Benjamin Carl Unseld, 1892
Z:Public Domain
Z:Courtesy of the Cyber Hymnal™
%%score ( 1 2 ) ( 3 4 )
L:1/8
Q:1/4=90
M:6/8
K:C
V:1 treble 
V:2 treble 
V:3 bass 
V:4 bass 
V:1
 [EG] | [EG][CE][DF] [EG][FA][DB] | ([Ec]3 [EG]2) G | [FB][FA][FG] [DF][^CE][DF] | %4
 ([^DA]3 [EG]2) [EG] | [EG][CE][DF] [EG][FA][DB] | [Ec]3 [Ge]2 [Ge] | [Gd][Gc][GB] [Gc][GB][^FA] | %8
 G3- G2 G | [FB][FB][FB] [FB][Ec][Fd] | [Ec]3 [EG]2 [Gc] | [Gd][Gd][Gd] [Gd][Gc][Gd] | %12
 [Ge]3- [Ge]2 [Ge] | [Ge][Ge][Ge] [Ge][Gf][Ge] | (d2 A) !fermata![^DB]2 [DA] | %15
 [EG][Ec][Ge] [Af][Ge][Fd] | [Ec]3- [Ec]2 |] %17
V:2
 x | x6 | x5 G | x6 | x6 | x6 | x6 | x6 | G3- G2 G | x6 | x6 | x6 | x6 | x6 | F3 x3 | x6 | x5 |] %17
V:3
 [C,C] | [C,C][C,G,][C,G,] [C,C][C,C][C,G,] | ([C,G,]3 [C,C]2) [E,C] | %3
 [G,D][G,C][G,B,] [G,B,][G,^A,][G,B,] | [C,C]3- [C,C]2 [C,C] | [C,C][C,G,][C,G,] [C,C][C,C][C,G,] | %6
 [C,G,]3 [C,C]2 [C,C] | [D,B,][D,A,][D,G,] [D,E][D,D][D,C] | [G,B,]3- [G,B,]2 [G,B,] | %9
 [G,D][G,D][G,D] [G,D][G,C][G,B,] | [C,C]3 [C,C]2 [E,C] | [G,B,][G,B,][G,B,] [G,B,][G,A,][G,B,] | %12
 C3- C2 C | [A,^C][A,C][A,C] [A,C][A,C][A,C] | D3 !fermata![^F,C]2 [F,C] | %15
 [G,C][G,C][G,C] [G,B,][G,B,][G,B,] | [C,C]3- [C,C]2 |] %17
V:4
 x | x6 | x6 | x6 | x6 | x6 | x6 | x6 | x6 | x6 | x6 | x6 | C3- C2 C | x6 | (D,2 ^F,) x3 | x6 | %16
 x5 |] %17

